X: 13
T: Maonan gen dang zou
%%abc-version 2.0
%%abcx-abcm2ps-target-version 5.9.1 (29 Sep 2008)
%%abc-creator hum2abc beta
%%abcx-conversion-date 2013/10/02 07:44:27
%%abc-edited-by Helmut Schaffrath
%%humdrum-veritas 1826754413
%%humdrum-veritas-data 1639784198
%%continueall 1
%%barnumbers 0
L: 1/16
K: A
e e e e f f f e [I:setbarnb 1]| 
c2 c B B2 F2 | 
A2 A B e2 c e | 
c2 A B c2 z2 | 
B2 F2 A2 F2 | 
A2 A2 A2 A2 | 
B2 A F A2 A F | 
A2 A2-A8 | 
[M:2/4]F8- | 
F8 | 
e e B c B c e c | 
B2 A F A2 F B | 
c2 c B F2 z2 | 
[M:3/4]B2 B2 B2 A B B2 A B | 
[M:2/4]A2 A2 F2 z2 | 
B2 A B F2 A B | 
A2 A2A4 | 
A6F2 | 
A8 | 
A8 | 
e e e e c B e c | 
B B A F A A A B | 
e2 c c B F A B | 
c2 c B A2 A B | 
B2 z2 A2 F2 | 
[M:3/4]A2 F2 B2 F2 A2 F2 | 
F2 A2-A8 | 
[M:2/4]F8- | 
F8 | 
e e c B c B e c | 
A2 A2 A2 A B | 
c2 c B F2 c B | 
c2 c2 B2 A B | 
[M:3/4]B2 c2 A2 A2 A2 z2 | 
[M:2/4]A2 A F A2 A B | 
[M:3/4]B4<A4z4 | 
[M:2/4]F8- | 
F8 | 
F2 F2 F2 A2 | 
A6F2 | 
A8 | 
A8- | 
A8 |]  



